X: 2
T: The Ragged Hank Of Yarn
M: 4/4
L: 1/8
R: reel
K: D Mixolydian
|: D2 AD (3EFG AB | c2 dB cAGE | D2 AD (3EFG AB | cAGE EDCE | 
D2 AD (3EFG AB | c2 dB cAGE | D2 AD (3EFG AB | cAGE EDDA :|
|: d2 Ad dcAB | cded cAGc| d2 Ad dcAB | cAGE EDDA | 
d2 Ad dcAB | cded cAGc | Adde ^fded | cAGE EDDA :|
